X:1

T:Whiskey and Water

M:6/8

L:1/8

R:Single Jig

S:O’Neill – Dance Music of Ireland: 1001 Gems (1907), No. 377

Z:AK/Fiddler’s Companion

K:Emin

B2A G3|GBA G3|B2A G2A|B2A BGE|B2A G3|GBA G2E|FEF d2B|

e2B AFD:||:B2e e2d|fed e3|B2e e2f|g2e fdB|1 B2^c d2B|edc d3|

B2^c d2e|f2e dBA:|2 B2^c d2=c|B>cB/A/ G3|FEF d2c|e2B AFD||

 

WHISKEY BARREL. AKA and see "Madam Parisott's Hornpipe," "Parisott Hornpipe." American, Reel. D Major. Standard tuning. AABB. The melody appears under this title in George P. Knauff's Virginia Reels, volume I (Baltimore, 1839).

